images/logo.svg

<svg height="159.9" viewBox="0 0 211.6 159.9" width="211.6" xmlns="http://www.w3.org/2000/svg"><path d="m36.7 0h140l34.3 40.9h-208z" fill="#4ec5d6"/><path d="m36.7 0 36 40.9h-72.7z" fill="#00b7d9"/><path d="m107.9 0-35.2 40.9h70.4z" fill="#a6dbd9"/><path d="m0 40.9h211.6l-103.7 119z" fill="#195070"/><path d="m72.7 40.9 35.2 118.4 35.2-118.4z" fill="#226487"/><path d="m143.1 40.9-5.3 17.3-17.3-17.3z" fill="#339fbb"/><path d="m120.5 40.9-24.5-27.3 11.9-13.6 35.2 40.9z" fill="#195070"/><path d="m96 13.6 24.5 27.3h-12l-18.7-19.9z" fill="#a3dbe0"/><path d="m137.8 58.2-17.3-17.3h-12l26.3 27.7z" fill="#298db3"/><path d="m170.3 88.3-32.5-30.1-3 10.4 28.1 28z" fill="#276b92"/><path d="m89.8 21 18.7 19.9h-12.5l-12-13.1z" fill="#8fd4d8"/><path d="m134.8 68.6-26.3-27.7h-12.5l35.9 37.7z" fill="#1d7aa7"/><path d="m162.9 96.6-28.1-28-2.9 10 25 25z" fill="#245b7d"/><path d="m143.1 40.9-5.3 17.3 31 31.8 42.8-49.1z" fill="#387799"/></svg>

<svg xmlns="http://www.w3.org/2000/svg" width="211.6" height="159.9" viewBox="0 0 211.6 159.9"><path fill="#4ec5d6" d="M36.7 0h140L211 40.9H3z"/><path fill="#00b7d9" d="M36.7 0l36 40.9H0z"/><path fill="#a6dbd9" d="M107.9 0L72.7 40.9h70.4z"/><path fill="#195070" d="M0 40.9h211.6l-103.7 119z"/><path fill="#226487" d="M72.7 40.9l35.2 118.4 35.2-118.4z"/><path fill="#339fbb" d="M143.1 40.9l-5.3 17.3-17.3-17.3z"/><path fill="#195070" d="M120.5 40.9L96 13.6 107.9 0l35.2 40.9z"/><path fill="#a3dbe0" d="M96 13.6l24.5 27.3h-12L89.8 21z"/><path fill="#298db3" d="M137.8 58.2l-17.3-17.3h-12l26.3 27.7z"/><path fill="#276b92" d="M170.3 88.3l-32.5-30.1-3 10.4 28.1 28z"/><path fill="#8fd4d8" d="M89.8 21l18.7 19.9H96L84 27.8z"/><path fill="#1d7aa7" d="M134.8 68.6l-26.3-27.7H96l35.9 37.7z"/><path fill="#245b7d" d="M162.9 96.6l-28.1-28-2.9 10 25 25z"/><path fill="#387799" d="M143.1 40.9l-5.3 17.3 31 31.8 42.8-49.1z"/></svg>
